public/logos/18_eu/8.svg

<svg xmlns="http://www.w3.org/2000/svg" viewBox="0 0 38 38"  fill-rule="nonzero" stroke-linejoin="round" stroke-miterlimit="2" xmlns:v="https://vecta.io/nano"><path d="M36.72 18.72c0-9.875-8.125-18-18-18s-18 8.125-18 18 8.125 18 18 18 18-8.125 18-18" fill="#202020"/><path d="M17.62 19.38A5.77 5.77 0 0 0 16 21.3c-.328.693-.492 1.453-.48 2.22a4.33 4.33 0 0 0 1.08 3c.693.755 1.675 1.181 2.7 1.17a3 3 0 0 0 2.37-1 3.53 3.53 0 0 0 1-2.58 3.6 3.6 0 0 0-.39-1.71c-.3-.522-.709-.972-1.2-1.32a24.49 24.49 0 0 0-3.46-1.7zm3.12-2.88a4.84 4.84 0 0 0 1.38-1.59 4 4 0 0 0 .45-1.86c.061-.895-.254-1.777-.87-2.43a3.06 3.06 0 0 0-2.34-.87c-.815-.053-1.617.229-2.22.78-.539.523-.833 1.249-.81 2a2.81 2.81 0 0 0 .81 2 12.01 12.01 0 0 0 3.6 1.97zm-4.41 2.28a6.06 6.06 0 0 1-2.34-2 5.19 5.19 0 0 1-.72-2.78 5.49 5.49 0 0 1 1.8-4.2 6.74 6.74 0 0 1 4.77-1.65c1.417-.093 2.819.346 3.93 1.23.92.855 1.414 2.076 1.35 3.33a4.31 4.31 0 0 1-.63 2.29c-.612.83-1.401 1.514-2.31 2 1.045.35 1.984.959 2.73 1.77A5.29 5.29 0 0 1 26 22.35c.043 1.854-.681 3.646-2 4.95-1.387 1.341-3.261 2.063-5.19 2-1.617.081-3.203-.48-4.41-1.56a5.12 5.12 0 0 1-1.68-3.93 5.19 5.19 0 0 1 .78-2.91 6.84 6.84 0 0 1 2.83-2.12zM-17.81 8.46v1.41c-2 3.45-3.87 7-5.61 10.71-1.334 2.745-2.529 5.555-3.58 8.42-.587-.072-1.178-.112-1.77-.12a13.22 13.22 0 0 0-1.71.12l-.15-.45 2.82-4.59 4-6.84 2.64-4.65-.15-.24h-5.58c-.914-.049-1.83.011-2.73.18a.77.77 0 0 0-.39.42c-.281.946-.443 1.924-.48 2.91l-.12.12-1.2-.09c.06-1.11.12-2.4.12-3.9 0-1-.06-2-.12-3.3l.24-.24c2.85.15 5.79.24 8.79.24l4.98-.11z" fill="#fff"/></svg>

<?xml version="1.0" encoding="UTF-8" standalone="no"?>
<!DOCTYPE svg PUBLIC "-//W3C//DTD SVG 1.1//EN" "http://www.w3.org/Graphics/SVG/1.1/DTD/svg11.dtd">
<svg width="100%" height="100%" viewBox="0 0 38 38" version="1.1" xmlns="http://www.w3.org/2000/svg" xmlns:xlink="http://www.w3.org/1999/xlink" xml:space="preserve" xmlns:serif="http://www.serif.com/" style="fill-rule:evenodd;clip-rule:evenodd;stroke-linejoin:round;stroke-miterlimit:2;">
    <path d="M36.72,18.72C36.72,8.845 28.595,0.72 18.72,0.72C8.845,0.72 0.72,8.845 0.72,18.72C0.72,28.595 8.845,36.72 18.72,36.72C28.595,36.72 36.72,28.595 36.72,18.72" style="fill:rgb(32,32,32);fill-rule:nonzero;"/>
    <path d="M17.62,19.38C16.946,19.893 16.392,20.549 16,21.3C15.672,21.993 15.508,22.753 15.52,23.52C15.485,24.621 15.872,25.694 16.6,26.52C17.293,27.275 18.275,27.701 19.3,27.69C20.2,27.729 21.071,27.362 21.67,26.69C22.34,26.002 22.702,25.07 22.67,24.11C22.683,23.517 22.549,22.929 22.28,22.4C21.98,21.878 21.571,21.428 21.08,21.08C19.973,20.423 18.816,19.855 17.62,19.38ZM20.74,16.5C21.311,16.078 21.782,15.535 22.12,14.91C22.418,14.336 22.573,13.697 22.57,13.05C22.631,12.155 22.316,11.273 21.7,10.62C21.079,10.011 20.228,9.694 19.36,9.75C18.545,9.697 17.743,9.979 17.14,10.53C16.601,11.053 16.307,11.779 16.33,12.53C16.323,13.278 16.615,13.998 17.14,14.53C18.218,15.388 19.436,16.055 20.74,16.5ZM16.33,18.78C15.391,18.326 14.585,17.637 13.99,16.78C13.493,15.94 13.244,14.976 13.27,14C13.231,12.406 13.889,10.871 15.07,9.8C16.386,8.653 18.097,8.061 19.84,8.15C21.257,8.057 22.659,8.496 23.77,9.38C24.69,10.235 25.184,11.456 25.12,12.71C25.129,13.517 24.91,14.311 24.49,15C23.878,15.83 23.089,16.514 22.18,17C23.225,17.35 24.164,17.959 24.91,18.77C25.697,19.79 26.085,21.064 26,22.35C26.043,24.204 25.319,25.996 24,27.3C22.613,28.641 20.739,29.363 18.81,29.3C17.193,29.381 15.607,28.82 14.4,27.74C13.294,26.738 12.68,25.301 12.72,23.81C12.687,22.784 12.958,21.771 13.5,20.9C14.241,19.958 15.217,19.226 16.33,18.78ZM-17.81,8.46L-17.81,9.87C-19.81,13.32 -21.68,16.87 -23.42,20.58C-24.754,23.325 -25.949,26.135 -27,29C-27.587,28.928 -28.178,28.888 -28.77,28.88C-29.342,28.883 -29.913,28.923 -30.48,29L-30.63,28.55C-29.63,26.96 -28.68,25.43 -27.81,23.96C-26.94,22.49 -25.59,20.21 -23.81,17.12L-21.17,12.47L-21.32,12.23L-26.9,12.23C-27.814,12.181 -28.73,12.241 -29.63,12.41C-29.809,12.495 -29.949,12.645 -30.02,12.83C-30.301,13.776 -30.463,14.754 -30.5,15.74L-30.62,15.86L-31.82,15.77C-31.76,14.66 -31.7,13.37 -31.7,11.87C-31.7,10.87 -31.76,9.87 -31.82,8.57L-31.58,8.33C-28.73,8.48 -25.79,8.57 -22.79,8.57C-21.41,8.55 -19.73,8.52 -17.81,8.46Z" style="fill:white;fill-rule:nonzero;"/>
</svg>
